X: 1
T: Shalom Aleichem
C: Trad
R: Klezmer
L: 1/8
M: 4/4
K: Em
Z: ABC transcription by Verge Roller
"Em" B,2 GF  E4 | "B7" ^DEFE DC B,2 | "B7" ^DD D2 "C" EDEG | "B7" F8 |
"Em" B,2 GF E4 | "B7" ^DEFE DC B,2 | "Am" A,2 E2 ^DEB,A, | "B7" B,8 |]
|: "G" G2 B2 B2 B2 | "D" AGFG "B7" AB A2 | "Em" GFEF G2 B2 | "B7" F8 |
"Am" F2 A6- | "B7" AcBA "Em" GFE=D | "C" EF G2 "B7" FE^DF | [1 "Em" E4 "D" F4 :| [2 "Em" E8 |]
r: 24
